inbox-multiple.svg

<svg fill="currentColor" viewBox="0 0 24 24"><path d="M19 8V5H5v3h4a3 3 0 0 0 3 3 3 3 0 0 0 3-3zm0-5a2 2 0 0 1 2 2v7a2 2 0 0 1-2 2H5a2 2 0 0 1-2-2V5a2 2 0 0 1 2-2zM3 15h6a3 3 0 0 0 3 3 3 3 0 0 0 3-3h6v4a2 2 0 0 1-2 2H5a2 2 0 0 1-2-2z"/></svg>

<svg  viewBox="0 0 24 24" fill="currentColor"><path  d="M19,8V5H5V8H9A3,3 0 0,0 12,11A3,3 0 0,0 15,8H19M19,3A2,2 0 0,1 21,5V12A2,2 0 0,1 19,14H5A2,2 0 0,1 3,12V5A2,2 0 0,1 5,3H19M3,15H9A3,3 0 0,0 12,18A3,3 0 0,0 15,15H21V19A2,2 0 0,1 19,21H5A2,2 0 0,1 3,19V15Z"/></svg>
